X: 32447
T: Pirate Ship, The
R: reel
M: 4/4
K: Gmajor
~G2Gc Bdgb|agfa gfgc|BGBd cBAB|cedc BG ~G2:|
bagb adfa|gfgb agfa|bagf gdcB|ecdc BG G2|
bgfg dgfa|gfgb agfa|bBaB gBfB|cedc BG ~G2||

